icons/person-arrow-down-outline.svg

<svg xmlns="http://www.w3.org/2000/svg" width="24" height="24" viewBox="0 0 24 24">
  <path d="M10.4676228,16.0003645 L11.0076763,16.0057544 C14.4141691,16.0682088 15.80903,16.6867426 15.9842893,19.0917479 L15.9953786,19.2802927 L16,19.5 L16,20.5 C16,20.7383924 15.9971539,20.817813 15.9690676,20.9648045 C15.9064905,21.2923056 15.7318635,21.5826456 15.4244325,21.7746571 C15.1451825,21.9490675 14.9786076,21.9883117 14.4919729,21.9973073 L14,22 L4,22 L3.65107363,21.9952256 C2.49782794,21.9601842 2.04900063,21.7156474 2.0039004,20.7255244 L2.00017148,20.5789484 L2,19.5 C2,16.7811217 3.40027757,16.074116 6.99322939,16.0059404 L7.53477183,16.0003645 L10.4676228,16.0003645 Z M7.53716646,18.0003616 C4.63739326,18.0073055 4.03538181,18.220675 4.00155904,19.3876232 L3.99999999,19.4998411 L3.999,20 L14,20 L14.0002452,19.5221452 L13.9966548,19.3478329 C13.9474604,18.265257 13.4009903,18.0221242 10.7281847,18.0016669 L7.53716646,18.0003616 Z M9,6 C11.209139,6 13,7.790861 13,10 C13,12.209139 11.209139,14 9,14 C6.790861,14 5,12.209139 5,10 C5,7.790861 6.790861,6 9,6 Z M9,8 C7.8954305,8 7,8.8954305 7,10 C7,11.1045695 7.8954305,12 9,12 C10.1045695,12 11,11.1045695 11,10 C11,8.8954305 10.1045695,8 9,8 Z M18,2 C18.5522847,2 19,2.44771525 19,3 L19,3 L19,6.585 L20.2928932,5.29289322 L20.3871006,5.20970461 C20.7793918,4.90467972 21.3466228,4.93240926 21.7071068,5.29289322 C22.0976311,5.68341751 22.0976311,6.31658249 21.7071068,6.70710678 L21.7071068,6.70710678 L18.7071068,9.70710678 L18.625449,9.78031123 C18.6225624,9.7826279 18.6196628,9.78492887 18.6128994,9.79029539 C18.6070733,9.79482546 18.6012086,9.79928214 18.5951593,9.80368649 C18.5711307,9.82150991 18.546275,9.8382813 18.5207088,9.85400455 C18.5086131,9.86139308 18.4963944,9.86850117 18.484277,9.87512423 C18.4642939,9.88620608 18.4438914,9.89662336 18.4232215,9.90632664 L18.4232215,9.90632664 L18.3710585,9.92889604 C18.3515792,9.93668426 18.3317977,9.94387751 18.3121425,9.95026191 C18.2968513,9.95527128 18.2814633,9.95990227 18.2658396,9.96427903 C18.2444365,9.97016637 18.2227461,9.9753602 18.2007258,9.97975993 C18.1833753,9.98329783 18.165949,9.98637192 18.1489612,9.98898066 L18.1489612,9.98898066 L18.08,9.996 L18.026,9.999 L18.019,9.999 L18,10 C17.9935938,10 17.9872016,9.99993976 17.980824,9.99981982 L17.980824,9.99981982 L17.9409686,9.9982669 C17.9308872,9.99767439 17.9208131,9.99692996 17.909968,9.99600202 L17.909968,9.99600202 L17.8515331,9.9889822 C17.834051,9.98637192 17.8166247,9.98329783 17.7992059,9.97983485 C17.7772539,9.9753602 17.7555635,9.97016637 17.734007,9.96415486 C17.7185367,9.95990227 17.7031487,9.95527128 17.6882636,9.95045332 C17.6682023,9.94387751 17.6484208,9.93668426 17.628664,9.92877451 L17.628664,9.92877451 L17.5769009,9.90634622 C17.5561086,9.89662336 17.5357061,9.88620608 17.5159379,9.87532883 L17.5159379,9.87532883 L17.4793398,9.85393257 C17.453725,9.8382813 17.4288693,9.82150991 17.4046934,9.80366542 L17.4046934,9.80366542 L17.38,9.784 L17.3832499,9.78721404 L17.378,9.783 L17.374551,9.78031123 L17.359,9.767 L17.347434,9.75779198 L17.347434,9.75779198 L17.2928932,9.70710678 L14.2928932,6.70710678 L14.2097046,6.61289944 C13.9046797,6.22060824 13.9324093,5.65337718 14.2928932,5.29289322 C14.6834175,4.90236893 15.3165825,4.90236893 15.7071068,5.29289322 L15.7071068,5.29289322 L17,6.585 L17,3 L17.0067277,2.88337887 C17.0644928,2.38604019 17.4871642,2 18,2 Z"/>
</svg>

<svg xmlns="http://www.w3.org/2000/svg" viewBox="0 0 24 24">
  <path d="M10.47 16H11c3.4.07 4.8.69 4.97 3.1l.02.18v1.22c0 .24 0 .32-.03.46a1.2 1.2 0 0 1-.55.81c-.27.18-.44.22-.93.23H3.65c-1.15-.04-1.6-.28-1.65-1.27V19.5c0-2.72 1.4-3.43 5-3.5h3.46zm-2.93 2c-2.9 0-3.5.22-3.54 1.39V20h10v-.65c-.05-1.08-.6-1.33-3.27-1.35h-3.2zM9 6a4 4 0 1 1 0 8 4 4 0 0 1 0-8zm0 2a2 2 0 1 0 0 4 2 2 0 0 0 0-4zm9-6a1 1 0 0 1 1 1v3.58l1.3-1.29.09-.08a1 1 0 0 1 1.32 1.5l-3 3-.08.07a3.01 3.01 0 0 1-.15.1l-.06.03-.05.02a.95.95 0 0 1-.22.06h-.13L18 10h-.09l-.06-.01a1.1 1.1 0 0 1-.22-.06l-.05-.02a1.04 1.04 0 0 1-.06-.03l-.04-.03a1.03 1.03 0 0 1-.08-.05l-.02-.02-.02-.01-.01-.01-.06-.05-3-3-.08-.1a1 1 0 0 1 1.5-1.32L17 6.6V2.88A1 1 0 0 1 18 2z"/>
</svg>
